X: 1
T: Paddy Cronin's
M: 12/8
L: 1/8
R: slide
K: Dmaj
|: D2 F FED E2 F G2 A | B2 E GFE B2 E GFE |
DFF FED E2 F G2 A | BEE GFE F2 E D3 :|
|: ded c2 d e2 d cBA | B2 E GFE B2 E G2 E |
d2 d c2 d e2 d cBA | B2 E GFE F2 E D3 :|
